src/Static/Positions/ks-position-30.svg

<?xml version="1.0" encoding="UTF-8"?>
<svg width="266px" height="125px" viewBox="0 0 266 125" version="1.1" xmlns="http://www.w3.org/2000/svg" xmlns:xlink="http://www.w3.org/1999/xlink">
    <title>sex-etsy-30</title>
    <defs>
        <ellipse id="path-1" cx="213.092711" cy="31.5078494" rx="22.5002183" ry="22.5003183"></ellipse>
        <filter x="-18.9%" y="-14.4%" width="137.8%" height="137.8%" filterUnits="objectBoundingBox" id="filter-2">
            <feMorphology radius="1.5" operator="dilate" in="SourceAlpha" result="shadowSpreadOuter1"></feMorphology>
            <feOffset dx="0" dy="2" in="shadowSpreadOuter1" result="shadowOffsetOuter1"></feOffset>
            <feGaussianBlur stdDeviation="2" in="shadowOffsetOuter1" result="shadowBlurOuter1"></feGaussianBlur>
            <feComposite in="shadowBlurOuter1" in2="SourceAlpha" operator="out" result="shadowBlurOuter1"></feComposite>
            <feColorMatrix values="0 0 0 0 0   0 0 0 0 0   0 0 0 0 0  0 0 0 1 0" type="matrix" in="shadowBlurOuter1"></feColorMatrix>
        </filter>
        <path d="M179.9048,89.1578 L196.6939,93.811 C196.9777,93.0567 197.2616,92.2705 197.545,91.4151 C198.9166,87.2758 200.5711,84.0168 202.4005,81.4401 C200.2291,76.6017 195.3531,72.7736 187.5116,71.7568 C185.5084,71.4968 183.7098,71.5862 181.9799,71.8855 L179.9048,89.1578 Z" id="path-3"></path>
        <filter x="-38.4%" y="-29.3%" width="177.1%" height="177.9%" filterUnits="objectBoundingBox" id="filter-4">
            <feMorphology radius="1.5" operator="dilate" in="SourceAlpha" result="shadowSpreadOuter1"></feMorphology>
            <feOffset dx="0" dy="2" in="shadowSpreadOuter1" result="shadowOffsetOuter1"></feOffset>
            <feGaussianBlur stdDeviation="2" in="shadowOffsetOuter1" result="shadowBlurOuter1"></feGaussianBlur>
            <feComposite in="shadowBlurOuter1" in2="SourceAlpha" operator="out" result="shadowBlurOuter1"></feComposite>
            <feColorMatrix values="0 0 0 0 0   0 0 0 0 0   0 0 0 0 0  0 0 0 1 0" type="matrix" in="shadowBlurOuter1"></feColorMatrix>
        </filter>
        <path d="M23.2109,59.044 C18.6963,55.4053 12.0869,56.1143 8.4463,60.629 C4.8067,65.1436 5.5166,71.754 10.0313,75.3936 L29.1408,90.7997 L54.8747,84.5718 L23.2109,59.044 Z" id="path-5"></path>
        <filter x="-17.4%" y="-19.1%" width="138.6%" height="150.3%" filterUnits="objectBoundingBox" id="filter-6">
            <feMorphology radius="1.5" operator="dilate" in="SourceAlpha" result="shadowSpreadOuter1"></feMorphology>
            <feOffset dx="0" dy="2" in="shadowSpreadOuter1" result="shadowOffsetOuter1"></feOffset>
            <feGaussianBlur stdDeviation="2" in="shadowOffsetOuter1" result="shadowBlurOuter1"></feGaussianBlur>
            <feComposite in="shadowBlurOuter1" in2="SourceAlpha" operator="out" result="shadowBlurOuter1"></feComposite>
            <feColorMatrix values="0 0 0 0 0   0 0 0 0 0   0 0 0 0 0  0 0 0 1 0" type="matrix" in="shadowBlurOuter1"></feColorMatrix>
        </filter>
        <path d="M183.159,111.4362 L165.8705,106.6446 C160.9262,105.2745 157.7826,100.5826 158.3959,95.4893 L160.5556,77.5187 C154.006,78.0732 145.4133,77.4223 133.1852,74.0365 C117.136,69.5928 112.5534,81.4439 112.9901,92.5947 L103.1788,92.5947 L97.7989,100.6247 C95.7286,103.7136 92.5987,105.8967 88.9844,106.7717 L60.8405,113.5827 C60.9342,113.5852 61.027,113.5947 61.121,113.5947 L180.621,113.5947 C182.1558,113.5947 183.6093,113.2575 184.9235,112.6657 C184.5446,112.445 184.2135,112.2307 183.9433,112.04 C183.6789,111.8534 183.4156,111.6511 183.159,111.4362 Z" id="path-7"></path>
        <filter x="-15.4%" y="-16.1%" width="123.7%" height="142.0%" filterUnits="objectBoundingBox" id="filter-8">
            <feMorphology radius="1.5" operator="dilate" in="SourceAlpha" result="shadowSpreadOuter1"></feMorphology>
            <feOffset dx="0" dy="2" in="shadowSpreadOuter1" result="shadowOffsetOuter1"></feOffset>
            <feGaussianBlur stdDeviation="2" in="shadowOffsetOuter1" result="shadowBlurOuter1"></feGaussianBlur>
            <feComposite in="shadowBlurOuter1" in2="SourceAlpha" operator="out" result="shadowBlurOuter1"></feComposite>
            <feColorMatrix values="0 0 0 0 0   0 0 0 0 0   0 0 0 0 0  0 0 0 1 0" type="matrix" in="shadowBlurOuter1"></feColorMatrix>
        </filter>
        <path d="M104.5442,41.5086 L104.3274,41.8323 C103.887,42.4058 103.4934,42.9942 103.1448,43.5967 L77.8293,81.3831 L9.5627,97.9041 C2.8527,99.5281 -1.2703,106.284 0.3537,112.9939 C1.7385,118.7156 6.8547,122.5564 12.4933,122.5564 C13.466,122.5564 14.4552,122.4417 15.4435,122.2029 L88.4435,104.5364 C91.4874,103.7996 94.1447,101.9466 95.8878,99.3445 L115.1994,70.52 C115.8215,70.4424 116.464,70.3542 117.1457,70.2467 C131.3547,66.9084 148.0754,68.4196 161.4838,69.7958 L163.0629,56.6563 C163.683,51.4849 168.0756,47.5845 173.2797,47.5845 C173.6899,47.5845 174.1059,47.6094 174.516,47.6587 C177.2484,47.9873 179.6889,49.3594 181.3881,51.523 C183.0873,53.6871 183.8432,56.3829 183.5141,59.1143 L182.3066,69.1656 C187.2053,67.166 190.9398,63.5581 191.6418,58.8159 C192.9279,50.1123 187.1105,38.2473 172.0471,34.6614 C151.3078,29.8526 138.095,29.6749 116.2375,34.4112 C113.9162,35.1024 111.9338,35.9373 110.2297,36.8829 C107.9904,37.7887 105.9895,39.3508 104.5442,41.5086 Z" id="path-9"></path>
        <filter x="-4.4%" y="-7.1%" width="108.9%" height="118.6%" filterUnits="objectBoundingBox" id="filter-10">
            <feMorphology radius="1.5" operator="dilate" in="SourceAlpha" result="shadowSpreadOuter1"></feMorphology>
            <feOffset dx="0" dy="2" in="shadowSpreadOuter1" result="shadowOffsetOuter1"></feOffset>
            <feGaussianBlur stdDeviation="2" in="shadowOffsetOuter1" result="shadowBlurOuter1"></feGaussianBlur>
            <feComposite in="shadowBlurOuter1" in2="SourceAlpha" operator="out" result="shadowBlurOuter1"></feComposite>
            <feColorMatrix values="0 0 0 0 0   0 0 0 0 0   0 0 0 0 0  0 0 0 1 0" type="matrix" in="shadowBlurOuter1"></feColorMatrix>
        </filter>
        <path d="M210.6814,97.6878 C210.8302,97.3473 210.9773,97.0065 211.1223,96.6655 C209.3319,88.8292 211.6755,80.7038 217.0442,75.0171 C210.6499,75.6742 203.8906,79.5768 199.7285,92.1385 C199.4617,92.9437 199.1919,93.6997 198.9206,94.4282 L210.6814,97.6878 Z" id="path-11"></path>
        <filter x="-49.6%" y="-29.1%" width="209.8%" height="176.7%" filterUnits="objectBoundingBox" id="filter-12">
            <feMorphology radius="1.5" operator="dilate" in="SourceAlpha" result="shadowSpreadOuter1"></feMorphology>
            <feOffset dx="0" dy="2" in="shadowSpreadOuter1" result="shadowOffsetOuter1"></feOffset>
            <feGaussianBlur stdDeviation="2" in="shadowOffsetOuter1" result="shadowBlurOuter1"></feGaussianBlur>
            <feComposite in="shadowBlurOuter1" in2="SourceAlpha" operator="out" result="shadowBlurOuter1"></feComposite>
            <feColorMatrix values="0 0 0 0 0   0 0 0 0 0   0 0 0 0 0  0 0 0 1 0" type="matrix" in="shadowBlurOuter1"></feColorMatrix>
        </filter>
        <path d="M214.0835,98.6307 L215.8726,99.1265 C218.524,99.8614 220.73,101.5845 222.0855,103.979 C223.1169,105.8011 223.5569,107.8455 223.3865,109.8871 C229.0421,113.222 236.1472,113.9345 242.6635,111.1913 C253.6075,106.5842 258.7444,93.9776 254.1374,83.0337 C249.5303,72.0897 236.9237,66.9527 225.9798,71.5598 C215.3962,76.0153 210.245,87.9515 214.0835,98.6307 Z" id="path-13"></path>
        <filter x="-19.8%" y="-15.1%" width="139.5%" height="139.5%" filterUnits="objectBoundingBox" id="filter-14">
            <feMorphology radius="1.5" operator="dilate" in="SourceAlpha" result="shadowSpreadOuter1"></feMorphology>
            <feOffset dx="0" dy="2" in="shadowSpreadOuter1" result="shadowOffsetOuter1"></feOffset>
            <feGaussianBlur stdDeviation="2" in="shadowOffsetOuter1" result="shadowBlurOuter1"></feGaussianBlur>
            <feComposite in="shadowBlurOuter1" in2="SourceAlpha" operator="out" result="shadowBlurOuter1"></feComposite>
            <feColorMatrix values="0 0 0 0 0   0 0 0 0 0   0 0 0 0 0  0 0 0 1 0" type="matrix" in="shadowBlurOuter1"></feColorMatrix>
        </filter>
        <path d="M181.2309,58.8399 C181.7582,54.4532 178.6293,50.4698 174.2426,49.9424 C169.853,49.4165 165.8725,52.544 165.3461,56.9307 L160.6791,95.7642 C160.2064,99.6905 162.6742,103.3721 166.4848,104.4283 L210.9848,116.7618 C211.6996,116.96 212.4184,117.0543 213.1264,117.0543 C216.6313,117.0543 219.8491,114.732 220.8305,111.1891 C222.0112,106.9313 219.516,102.5231 215.2582,101.3429 L177.3852,90.8463 L181.2309,58.8399 Z" id="path-15"></path>
        <filter x="-14.0%" y="-9.7%" width="128.1%" height="125.3%" filterUnits="objectBoundingBox" id="filter-16">
            <feMorphology radius="1.5" operator="dilate" in="SourceAlpha" result="shadowSpreadOuter1"></feMorphology>
            <feOffset dx="0" dy="2" in="shadowSpreadOuter1" result="shadowOffsetOuter1"></feOffset>
            <feGaussianBlur stdDeviation="2" in="shadowOffsetOuter1" result="shadowBlurOuter1"></feGaussianBlur>
            <feComposite in="shadowBlurOuter1" in2="SourceAlpha" operator="out" result="shadowBlurOuter1"></feComposite>
            <feColorMatrix values="0 0 0 0 0   0 0 0 0 0   0 0 0 0 0  0 0 0 1 0" type="matrix" in="shadowBlurOuter1"></feColorMatrix>
        </filter>
    </defs>
    <g id="Page-2" stroke="none" stroke-width="1" fill="none" fill-rule="evenodd">
        <g id="sex-etsy-30" transform="translate(5.000000, -5.000000)" fill-rule="nonzero">
            <g id="Oval" transform="translate(213.092711, 31.507849) rotate(-29.274421) translate(-213.092711, -31.507849) ">
                <use fill="black" fill-opacity="1" filter="url(#filter-2)" xlink:href="#path-1"></use>
                <use stroke="#1A1A1D" stroke-width="3" fill="#4E4E50" xlink:href="#path-1"></use>
            </g>
            <g id="Path">
                <use fill="black" fill-opacity="1" filter="url(#filter-4)" xlink:href="#path-3"></use>
                <use stroke="#1A1A1D" stroke-width="3" fill="#4E4E50" xlink:href="#path-3"></use>
            </g>
            <g id="Path">
                <use fill="black" fill-opacity="1" filter="url(#filter-6)" xlink:href="#path-5"></use>
                <use stroke="#1A1A1D" stroke-width="3" fill="#6F2232" xlink:href="#path-5"></use>
            </g>
            <g id="Path">
                <use fill="black" fill-opacity="1" filter="url(#filter-8)" xlink:href="#path-7"></use>
                <use stroke="#1A1A1D" stroke-width="3" fill="#6F2232" xlink:href="#path-7"></use>
            </g>
            <g id="Path">
                <use fill="black" fill-opacity="1" filter="url(#filter-10)" xlink:href="#path-9"></use>
                <use stroke="#1A1A1D" stroke-width="3" fill="#4E4E50" xlink:href="#path-9"></use>
            </g>
            <g id="Path">
                <use fill="black" fill-opacity="1" filter="url(#filter-12)" xlink:href="#path-11"></use>
                <use stroke="#1A1A1D" stroke-width="3" fill="#6F2232" xlink:href="#path-11"></use>
            </g>
            <g id="Path">
                <use fill="black" fill-opacity="1" filter="url(#filter-14)" xlink:href="#path-13"></use>
                <use stroke="#1A1A1D" stroke-width="3" fill="#6F2232" xlink:href="#path-13"></use>
            </g>
            <g id="Path">
                <use fill="black" fill-opacity="1" filter="url(#filter-16)" xlink:href="#path-15"></use>
                <use stroke="#1A1A1D" stroke-width="3" fill="#4E4E50" xlink:href="#path-15"></use>
            </g>
        </g>
    </g>
</svg>

<svg xmlns="http://www.w3.org/2000/svg" width="266" height="125" xmlns:xlink="http://www.w3.org/1999/xlink"><title>sex-etsy-30</title><defs><ellipse id="b" cx="213.093" cy="31.508" rx="22.5" ry="22.5"/><filter id="a" width="137.8%" height="137.8%" x="-18.9%" y="-14.4%" filterUnits="objectBoundingBox"><feMorphology radius="1.5" operator="dilate" in="SourceAlpha" result="shadowSpreadOuter1"/><feOffset dy="2" in="shadowSpreadOuter1" result="shadowOffsetOuter1"/><feGaussianBlur stdDeviation="2" in="shadowOffsetOuter1" result="shadowBlurOuter1"/><feComposite in="shadowBlurOuter1" in2="SourceAlpha" operator="out" result="shadowBlurOuter1"/><feColorMatrix values="0 0 0 0 0 0 0 0 0 0 0 0 0 0 0 0 0 0 1 0" in="shadowBlurOuter1"/></filter><path id="d" d="M179.9 89.16l16.8 4.65c.28-.74.56-1.53.84-2.38 1.38-4.14 3.03-7.4 4.86-9.98-2.17-4.84-7.05-8.67-14.9-9.68-2-.26-3.8-.17-5.52.13l-2.08 17.26z"/><filter id="c" width="177.1%" height="177.9%" x="-38.4%" y="-29.3%" filterUnits="objectBoundingBox"><feMorphology radius="1.5" operator="dilate" in="SourceAlpha" result="shadowSpreadOuter1"/><feOffset dy="2" in="shadowSpreadOuter1" result="shadowOffsetOuter1"/><feGaussianBlur stdDeviation="2" in="shadowOffsetOuter1" result="shadowBlurOuter1"/><feComposite in="shadowBlurOuter1" in2="SourceAlpha" operator="out" result="shadowBlurOuter1"/><feColorMatrix values="0 0 0 0 0 0 0 0 0 0 0 0 0 0 0 0 0 0 1 0" in="shadowBlurOuter1"/></filter><path id="f" d="M23.2 59.04c-4.5-3.63-11.1-2.93-14.75 1.6-3.64 4.5-2.93 11.1 1.58 14.75l19.1 15.4 25.74-6.23L23.2 59.04z"/><filter id="e" width="138.6%" height="150.3%" x="-17.4%" y="-19.1%" filterUnits="objectBoundingBox"><feMorphology radius="1.5" operator="dilate" in="SourceAlpha" result="shadowSpreadOuter1"/><feOffset dy="2" in="shadowSpreadOuter1" result="shadowOffsetOuter1"/><feGaussianBlur stdDeviation="2" in="shadowOffsetOuter1" result="shadowBlurOuter1"/><feComposite in="shadowBlurOuter1" in2="SourceAlpha" operator="out" result="shadowBlurOuter1"/><feColorMatrix values="0 0 0 0 0 0 0 0 0 0 0 0 0 0 0 0 0 0 1 0" in="shadowBlurOuter1"/></filter><path id="h" d="M183.16 111.44l-17.3-4.8c-4.93-1.37-8.08-6.06-7.46-11.15l2.16-17.98c-6.55.55-15.15-.1-27.37-3.48-16.06-4.45-20.65 7.4-20.2 18.55h-9.82l-5.38 8.02c-2.07 3.1-5.2 5.28-8.82 6.15l-28.14 6.8c.1.02.2.02.28.02h119.5c1.54 0 3-.34 4.3-.93-.38-.23-.7-.44-.98-.63-.26-.2-.52-.4-.78-.6z"/><filter id="g" width="123.7%" height="142%" x="-15.4%" y="-16.1%" filterUnits="objectBoundingBox"><feMorphology radius="1.5" operator="dilate" in="SourceAlpha" result="shadowSpreadOuter1"/><feOffset dy="2" in="shadowSpreadOuter1" result="shadowOffsetOuter1"/><feGaussianBlur stdDeviation="2" in="shadowOffsetOuter1" result="shadowBlurOuter1"/><feComposite in="shadowBlurOuter1" in2="SourceAlpha" operator="out" result="shadowBlurOuter1"/><feColorMatrix values="0 0 0 0 0 0 0 0 0 0 0 0 0 0 0 0 0 0 1 0" in="shadowBlurOuter1"/></filter><path id="j" d="M104.54 41.5l-.2.33c-.45.58-.85 1.16-1.2 1.77l-25.3 37.78L9.55 97.9c-6.7 1.63-10.83 8.38-9.2 15.1 1.38 5.72 6.5 9.56 12.13 9.56.97 0 1.96-.12 2.94-.36l73-17.66c3.05-.74 5.7-2.6 7.45-5.2l19.3-28.82c.62-.08 1.26-.17 1.95-.27 14.2-3.34 30.93-1.83 44.33-.45l1.58-13.14c.62-5.18 5.02-9.08 10.22-9.08.4 0 .83.03 1.24.08 2.73.33 5.17 1.7 6.87 3.86 1.7 2.17 2.44 4.86 2.1 7.6l-1.2 10.05c4.9-2 8.64-5.6 9.34-10.35 1.3-8.7-4.53-20.57-19.6-24.16-20.73-4.8-33.94-5-55.8-.25-2.32.7-4.3 1.54-6 2.48-2.25.9-4.25 2.47-5.7 4.63z"/><filter id="i" width="108.9%" height="118.6%" x="-4.4%" y="-7.1%" filterUnits="objectBoundingBox"><feMorphology radius="1.5" operator="dilate" in="SourceAlpha" result="shadowSpreadOuter1"/><feOffset dy="2" in="shadowSpreadOuter1" result="shadowOffsetOuter1"/><feGaussianBlur stdDeviation="2" in="shadowOffsetOuter1" result="shadowBlurOuter1"/><feComposite in="shadowBlurOuter1" in2="SourceAlpha" operator="out" result="shadowBlurOuter1"/><feColorMatrix values="0 0 0 0 0 0 0 0 0 0 0 0 0 0 0 0 0 0 1 0" in="shadowBlurOuter1"/></filter><path id="l" d="M210.68 97.7c.15-.35.3-.7.44-1.03-1.8-7.84.56-15.97 5.92-21.65-6.4.65-13.15 4.56-17.3 17.12-.28.8-.55 1.56-.82 2.3l11.76 3.25z"/><filter id="k" width="209.8%" height="176.7%" x="-49.6%" y="-29.1%" filterUnits="objectBoundingBox"><feMorphology radius="1.5" operator="dilate" in="SourceAlpha" result="shadowSpreadOuter1"/><feOffset dy="2" in="shadowSpreadOuter1" result="shadowOffsetOuter1"/><feGaussianBlur stdDeviation="2" in="shadowOffsetOuter1" result="shadowBlurOuter1"/><feComposite in="shadowBlurOuter1" in2="SourceAlpha" operator="out" result="shadowBlurOuter1"/><feColorMatrix values="0 0 0 0 0 0 0 0 0 0 0 0 0 0 0 0 0 0 1 0" in="shadowBlurOuter1"/></filter><path id="n" d="M214.08 98.63l1.8.5c2.64.73 4.85 2.45 6.2 4.85 1.04 1.82 1.48 3.87 1.3 5.9 5.66 3.34 12.77 4.05 19.28 1.3 10.95-4.6 16.08-17.2 11.48-28.15-4.6-10.94-17.22-16.08-28.16-11.47-10.58 4.46-15.73 16.4-11.9 27.07z"/><filter id="m" width="139.5%" height="139.5%" x="-19.8%" y="-15.1%" filterUnits="objectBoundingBox"><feMorphology radius="1.5" operator="dilate" in="SourceAlpha" result="shadowSpreadOuter1"/><feOffset dy="2" in="shadowSpreadOuter1" result="shadowOffsetOuter1"/><feGaussianBlur stdDeviation="2" in="shadowOffsetOuter1" result="shadowBlurOuter1"/><feComposite in="shadowBlurOuter1" in2="SourceAlpha" operator="out" result="shadowBlurOuter1"/><feColorMatrix values="0 0 0 0 0 0 0 0 0 0 0 0 0 0 0 0 0 0 1 0" in="shadowBlurOuter1"/></filter><path id="p" d="M181.23 58.84c.53-4.4-2.6-8.37-7-8.9-4.38-.52-8.36 2.6-8.88 7l-4.67 38.82c-.47 3.93 2 7.6 5.8 8.67l44.5 12.33c.72.2 1.44.3 2.15.3 3.5 0 6.72-2.33 7.7-5.87 1.18-4.27-1.3-8.68-5.57-9.86l-37.87-10.5 3.83-32z"/><filter id="o" width="128.1%" height="125.3%" x="-14%" y="-9.7%" filterUnits="objectBoundingBox"><feMorphology radius="1.5" operator="dilate" in="SourceAlpha" result="shadowSpreadOuter1"/><feOffset dy="2" in="shadowSpreadOuter1" result="shadowOffsetOuter1"/><feGaussianBlur stdDeviation="2" in="shadowOffsetOuter1" result="shadowBlurOuter1"/><feComposite in="shadowBlurOuter1" in2="SourceAlpha" operator="out" result="shadowBlurOuter1"/><feColorMatrix values="0 0 0 0 0 0 0 0 0 0 0 0 0 0 0 0 0 0 1 0" in="shadowBlurOuter1"/></filter></defs><g fill="none"><g fill-rule="nonzero"><g transform="translate(5 -5) rotate(-29.274 213.093 31.508)"><use fill="#000" filter="url(#a)" xlink:href="#b"/><use fill="#4E4E50" stroke="#1A1A1D" stroke-width="3" xlink:href="#b"/></g><g id="Path" transform="translate(5 -5)"><use fill="#000" filter="url(#c)" xlink:href="#d"/><use fill="#4E4E50" stroke="#1A1A1D" stroke-width="3" xlink:href="#d"/></g><g id="Path" transform="translate(5 -5)"><use fill="#000" filter="url(#e)" xlink:href="#f"/><use fill="#6F2232" stroke="#1A1A1D" stroke-width="3" xlink:href="#f"/></g><g id="Path" transform="translate(5 -5)"><use fill="#000" filter="url(#g)" xlink:href="#h"/><use fill="#6F2232" stroke="#1A1A1D" stroke-width="3" xlink:href="#h"/></g><g id="Path" transform="translate(5 -5)"><use fill="#000" filter="url(#i)" xlink:href="#j"/><use fill="#4E4E50" stroke="#1A1A1D" stroke-width="3" xlink:href="#j"/></g><g id="Path" transform="translate(5 -5)"><use fill="#000" filter="url(#k)" xlink:href="#l"/><use fill="#6F2232" stroke="#1A1A1D" stroke-width="3" xlink:href="#l"/></g><g id="Path" transform="translate(5 -5)"><use fill="#000" filter="url(#m)" xlink:href="#n"/><use fill="#6F2232" stroke="#1A1A1D" stroke-width="3" xlink:href="#n"/></g><g transform="translate(5 -5)"><use fill="#000" filter="url(#o)" xlink:href="#p"/><use fill="#4E4E50" stroke="#1A1A1D" stroke-width="3" xlink:href="#p"/></g></g></g></svg>
